X: 40821
T: Train Mu-ZAY-um, The
R: waltz
M: 3/4
K: Fmajor
|FBc|:d2 f3 B|A3 BAF|GA~G FCD|D3 B,DF|
G2G BAF|Acd cBA|ABc ADF|G4 Bc:|
|:f2 A4|g2 d4|fdB cdf|A3 BAD|
BAG DFG|fdc AFG|ABc ADF|G4 Bc:|

